X: 1
T: Brudmarsch fr. H\"alsingland
T: Brudmarsch fr. Delsbo
C: trad.
R: march
Z: 2017 John Chambers <jc:trillian.mit.edu>
S: printed page of unknown origin
S: https://www.youtube.com/watch?v=KM7-zGRzfK8
S: https://www.youtube.com/watch?v=me2nRtLHn6c
S: https://vimeo.com/14436432
M: 2/4
L: 1/16
K: C
% - - - - - - - - - -
V: 1 staves=2
G2 |\
"C"[c4E4G,2] (cd)cB | c2d2 e2c2 | "F"A4 (F3G) | F4 z2(GF) |\
"C"E2G2 c2e2 | "G7"g2(ag) f2d2 | "C"c4 "G7"(BA)Bd | "C"c4 z2 :|
|: g2 |\
"C"(ag)^fg (ag)fg | c'2g2 e2c2 | "G7"B4 [G3-G,3-][GG,] | [G4G,3] z2g2 |\
{g}f2df "C"e2c2 |
"G7"{g}f2df "C"e2c2 | "(G7)"g4 (~g3a) | "G7"g4 z2G2 |\
"C"[c4E4G,2] (cd)cB | c2d2 e2c2 |
"F"A4 (F3G) | F4 z2(GF) |\
"C"E2G2 c2e2 | "G7"g2(ag) f2d2 | "C"c4 "G7"(BA)Bd | "C"c4 z2 :|
% - - - - - - - - - -
V: 2
z2 |\
(EF)ED (EF)ED | C2B,2 CDEG | (FC)FA (cd)cB | A2B2 c2(BA) |\
G2e2 c2G2 | (FG)Bd (DG)BG | (A2G2) (G^F)=FG, | [E4G,4] z2 :|
|: G2 |\
ccGG EECC | (AG)^FG (GF)=FE | (DE)FG (FG)FE | DCB,A, B,2e2 |\
(dc)BA (Gc)eg | (dc)BA (Gc)eA | [G4G,4] ([G3G,3][AA,]) | [G2G,2][F2G,2] [E2G,2][D2G,2] |
G2c2 G2E2 | [E2C2][E2B,2] [E2A,2][E2G,2] | (FC)FA (c2f2) | (ag)fe (dc)BA |\
(Gc)ec (GE)DC | (B,A,)B,C D2G2 | (AG)FE (G^F)=FG, | [E4G,4] z2 :|
% - - - - - - - - - -
